packages/assets/static/images/icons/bold/airplane-tilt--bold.svg

<svg width="24" height="24" viewBox="0 0 24 24" xmlns="http://www.w3.org/2000/svg">
<path d="M18.1972 10.4266L20.7482 8.02562L20.7725 8.00125C21.3969 7.36657 21.7453 6.51087 21.7417 5.62053C21.738 4.7302 21.3827 3.87736 20.7532 3.24779C20.1236 2.61822 19.2708 2.26293 18.3804 2.25931C17.4901 2.25568 16.6344 2.60402 15.9997 3.22844C15.9913 3.23594 15.9838 3.24437 15.9753 3.25281L13.5744 5.80375L6.01909 3.05781C5.81798 2.98474 5.60021 2.97054 5.39132 3.01686C5.18242 3.06319 4.99107 3.16813 4.83971 3.31937L2.58971 5.56937C2.47146 5.68703 2.38085 5.8295 2.32445 5.98648C2.26804 6.14347 2.24725 6.31103 2.26358 6.47704C2.27992 6.64305 2.33296 6.80335 2.41887 6.94633C2.50479 7.08931 2.62143 7.2114 2.76034 7.30375L8.3694 11.0425L7.41596 11.9912H5.63471C5.33658 11.9913 5.05064 12.1096 4.83971 12.3203L2.58971 14.5703C2.45815 14.7018 2.36124 14.8638 2.30764 15.0419C2.25404 15.22 2.24543 15.4086 2.28259 15.5908C2.31974 15.7731 2.40149 15.9433 2.52054 16.0862C2.63958 16.2291 2.79219 16.3402 2.96471 16.4097L6.26753 17.7316L7.58565 21.0259L7.59409 21.0466C7.66571 21.2195 7.77933 21.3717 7.92466 21.4897C8.06999 21.6076 8.24244 21.6873 8.42638 21.7218C8.61033 21.7562 8.79996 21.7442 8.9781 21.6869C9.15624 21.6296 9.31727 21.5287 9.44659 21.3934L11.6788 19.1612C11.7834 19.057 11.8665 18.9331 11.9233 18.7967C11.9801 18.6603 12.0095 18.514 12.0097 18.3662V16.585L12.9594 15.6353L16.6972 21.2397C16.7895 21.3782 16.9114 21.4945 17.0541 21.5802C17.1968 21.6659 17.3568 21.7188 17.5224 21.7352C17.688 21.7516 17.8553 21.7311 18.012 21.6751C18.1687 21.619 18.3111 21.5289 18.4288 21.4112L20.6788 19.1612C20.8302 19.0098 20.9352 18.8183 20.9816 18.6092C21.0279 18.4001 21.0136 18.1822 20.9403 17.9809L18.1972 10.4266ZM17.8119 18.85L14.0722 13.2409C13.9799 13.1026 13.858 12.9864 13.7153 12.9008C13.5726 12.8152 13.4128 12.7623 13.2472 12.7459C13.2098 12.7424 13.1723 12.7409 13.1347 12.7412C12.9869 12.7413 12.8405 12.7704 12.7039 12.827C12.5673 12.8837 12.4433 12.9666 12.3388 13.0712L10.0888 15.3212C9.87808 15.5322 9.75973 15.8181 9.75971 16.1162V17.8975L9.04534 18.6119L8.17909 16.4462C8.12251 16.3047 8.03773 16.1761 7.92991 16.0682C7.8221 15.9604 7.69349 15.8756 7.5519 15.8191L5.38628 14.9528L6.10346 14.2412H7.88471C8.18285 14.2412 8.46879 14.1229 8.67971 13.9122L10.9297 11.6622C11.0478 11.5445 11.1383 11.4021 11.1946 11.2452C11.2509 11.0883 11.2716 10.9209 11.2553 10.755C11.2389 10.5891 11.186 10.429 11.1001 10.2861C11.0143 10.1432 10.8978 10.0211 10.7591 9.92875L5.15096 6.19L5.92346 5.41656L13.5013 8.17187C13.7079 8.24707 13.9321 8.26006 14.146 8.20924C14.3599 8.15842 14.5543 8.04602 14.705 7.88594L17.601 4.80906C17.8123 4.59772 18.099 4.47899 18.3978 4.47899C18.6967 4.47899 18.9834 4.59772 19.1947 4.80906C19.4061 5.02041 19.5248 5.30705 19.5248 5.60594C19.5248 5.90482 19.4061 6.19147 19.1947 6.40281L16.1178 9.29875C15.9576 9.44939 15.845 9.64369 15.794 9.85764C15.743 10.0716 15.7559 10.2958 15.831 10.5025L18.5872 18.0794L17.8119 18.85Z"/>
</svg>

<svg viewBox="0 0 24 24" xmlns="http://www.w3.org/2000/svg" aria-hidden="true" fill="currentColor"><path d="m18.197 10.427 2.551-2.401.024-.025A3.375 3.375 0 0 0 16 3.228l-.025.025-2.4 2.55-7.556-2.745a1.13 1.13 0 0 0-1.18.261L2.59 5.57a1.125 1.125 0 0 0 .171 1.735l5.61 3.739-.954.948H5.635c-.298 0-.584.119-.795.33l-2.25 2.25a1.125 1.125 0 0 0 .375 1.839l3.303 1.322 1.318 3.294.008.02a1.126 1.126 0 0 0 1.853.347l2.232-2.232a1.13 1.13 0 0 0 .33-.795v-1.781l.95-.95 3.738 5.605a1.125 1.125 0 0 0 1.732.171l2.25-2.25a1.13 1.13 0 0 0 .261-1.18zm-.385 8.423-3.74-5.61a1.125 1.125 0 0 0-1.733-.169l-2.25 2.25c-.21.211-.33.497-.33.795v1.782l-.714.714-.866-2.166a1.13 1.13 0 0 0-.627-.627l-2.166-.866.717-.712h1.782c.298 0 .584-.118.795-.329l2.25-2.25a1.125 1.125 0 0 0-.17-1.733L5.15 6.19l.772-.773 7.578 2.755a1.13 1.13 0 0 0 1.204-.286l2.896-3.077a1.127 1.127 0 1 1 1.594 1.594l-3.077 2.896a1.13 1.13 0 0 0-.287 1.204l2.756 7.576z"/></svg>
